X: 202
T:Lisa Lynn
R:waltz
Z:Alf warnock, alf0@rogers.com - www.alfwarnock.info/alfs
M:3/4
L:1/8
K:A
ED|:"A"C2 E2 A2|c3c Bc|"D"d2 A2 F2|D6|"E7"E2 G2 B2|
g2 f3g|[1 "A"a2 e3d|c4 ED:|[2 "A"a3g ab|a4 cd||
"A"ea a3A|"D"df f3A|df fd AB|"Bm"F4 GF|"E7"E2 G3B|
[1 g2 f3g|"A"a4 ed|c4 cd:|[2 g2 f2 g2|"A"a3g ab|a6|]
